X: 1
T: Batchelder's Reel
%date 1883
M: C|
R: reel
K: F
c2 |\
"F"f2af "C7"efge | "F"f2c2 c2=Bc | "Bb"dcBA "Gm"BAGF | "C7"EFGA Bcde |
"F"f2af "C7"efge | "F"f2c2 c2=Bc | "Bb"dcBA "Gm"BAGF | "C7"EFGE "F"F2 :|
|: c2 |\
"F"A2cA cAcA | "Bb"B2dB dBdB | "F"A2cA cAcA | "Gm"BAGF "C7"EFGB |
"F"A2cA cAcA | "Bb"B2dB dBdB | "F"Acfa "C7"bgeg | "F"f2a2 f2 :|

%%sep 1 1 500

